src/assets/svgicons/gruop-polo.svg

<svg width="82" height="44" viewBox="0 0 82 44" fill="none" xmlns="http://www.w3.org/2000/svg">
<g clip-path="url(#clip0_1108_291)">
<path d="M55.6016 67.1256L52.333 68.5809C51.1568 69.0107 49.9826 69.4452 48.8059 69.871C45.7823 70.9636 42.7049 71.8475 39.5075 72.2635C38.3483 72.4139 38.0083 72.2136 37.5319 71.1435C32.5356 59.9216 27.5352 48.7001 22.5459 37.475C21.75 35.6841 20.9327 33.9083 19.7052 32.3599C18.5157 30.8591 17.1441 29.5753 15.3422 28.8361C14.6208 28.5408 13.8601 28.8402 13.566 29.4952C13.2713 30.1519 13.506 30.9246 14.1742 31.2325C16.6574 32.3786 18.157 34.4406 19.2758 36.8025C20.5606 39.515 21.733 42.2804 22.9539 45.0227C23.0357 45.2063 23.1169 45.3887 23.1981 45.5712C22.9467 45.6831 22.7973 45.7692 22.6358 45.8187C19.5459 46.7628 16.3792 47.1849 13.1547 47.1968C12.1276 47.2001 11.6809 46.8735 11.3812 45.9014C10.4653 42.9377 9.48843 39.9915 8.65373 37.0057C7.80716 33.9776 7.18659 30.8936 7.03051 27.7389C6.92842 25.6684 7.13274 23.6787 8.39532 21.8975C10.3394 19.1543 12.6991 16.8159 15.223 14.6259C16.0815 13.8821 16.9634 13.1657 17.7642 12.4968C17.7994 13.3722 17.6642 14.2802 17.9073 15.0716C18.2519 16.1919 18.758 17.3034 19.4011 18.2852C21.208 21.0469 23.6282 23.2567 26.1329 25.37C26.9154 26.0291 27.4759 26.001 28.2992 25.3542C29.2127 24.6364 30.1344 23.9275 31.1182 23.163C31.2343 23.4238 31.3187 23.6133 31.403 23.8027C32.3653 25.961 33.323 28.1213 34.2923 30.2765C34.5992 30.9595 35.2697 31.2537 35.914 31.0201C36.6281 30.761 36.9754 30.1468 36.8155 29.4067C36.776 29.2267 36.7098 29.053 36.6533 28.8694C38.3054 28.7153 39.1805 28.0875 39.4987 26.8444C39.796 25.6835 39.3932 24.5807 38.4332 23.932C37.2741 23.1477 36.2818 23.2952 34.6973 24.4981L33.4456 21.6868C33.9702 21.5023 34.45 21.2676 34.9582 21.1689C36.5203 20.863 38.0915 20.609 39.6586 20.3331C40.5706 20.1722 40.9638 19.7618 41.0052 18.8381C41.1445 15.755 41.0916 12.6748 40.4278 9.64793C39.9299 7.38097 39.2768 5.16492 36.8876 4.01608C37.0057 3.96349 37.0761 3.91392 37.1518 3.90127C40.6329 3.31683 44.1314 2.94749 47.6687 3.01484C50.5126 3.07003 53.1136 3.63411 55.2312 5.78109C57.7692 8.3532 59.916 11.2144 61.8291 14.2553C63.3339 16.6471 64.7226 19.1115 66.1638 21.5428C66.613 22.2999 66.5975 23.0298 65.9652 23.6365C64.452 25.0878 62.9348 26.5425 61.3354 27.8977C60.3442 28.737 59.2001 29.3963 58.0909 30.1592C57.959 29.9293 57.8875 29.8252 57.837 29.7118C56.5556 26.8338 55.2124 23.9805 54.0134 21.0673C53.0549 18.735 52.5866 16.3077 53.3796 13.7897C53.5974 13.0986 53.1758 12.3909 52.4999 12.1664C51.8674 11.9575 51.1169 12.2735 50.87 12.9243C50.6756 13.4382 50.5275 13.9806 50.4425 14.5229C49.9985 17.3717 50.606 20.0705 51.7509 22.6547C56.9724 34.4294 62.2207 46.1921 67.4601 57.9602C67.8683 58.877 67.7758 59.3049 67.0141 59.9734C64.5875 62.1019 61.8585 63.7808 59.0334 65.3132C57.8958 65.9304 56.7449 66.5241 55.6003 67.129L55.6016 67.1256Z" fill="#AAAAAA"/>
<path d="M23.2827 10.6533C26.4848 10.018 29.3003 8.78826 31.9412 6.81091C32.0367 8.05757 32.1298 9.12591 32.1976 10.1971C32.3732 12.9929 32.5338 15.7897 32.7066 18.5854C32.7256 18.902 32.7282 19.2162 32.3345 19.2667C32.1207 19.2932 31.8116 19.2851 31.6834 19.1545C28.9145 16.3754 26.1649 13.5767 23.2844 10.654L23.2827 10.6533Z" fill="#AAAAAA"/>
<path d="M35.3873 18.331C35.1286 14.2313 34.8755 10.2102 34.6223 6.19209C36.2081 6.35482 37.0971 7.23131 37.55 9.09512C38.2044 11.7955 38.3862 14.5422 38.3676 17.311C38.3645 17.7131 38.2313 17.8733 37.842 17.9275C37.0463 18.038 36.2545 18.1859 35.3885 18.3305L35.3873 18.331Z" fill="#AAAAAA"/>
<path d="M20.8082 11.9876C23.7658 14.9797 26.6692 17.916 29.6169 20.8984C28.8749 21.4852 28.19 22.0494 27.4733 22.5703C27.3654 22.6491 27.0549 22.5968 26.9369 22.4924C24.6842 20.5107 22.576 18.3974 21.0327 15.7902C20.3412 14.6211 20.2869 13.7373 20.8065 11.987L20.8082 11.9876Z" fill="#AAAAAA"/>
</g>
<defs>
<clipPath id="clip0_1108_291">
<rect width="60" height="65.2971" fill="white" transform="translate(0 20.4043) rotate(-24)"/>
</clipPath>
</defs>
</svg>

<svg viewBox="0 0 82 44" xmlns="http://www.w3.org/2000/svg"><g><path d="m55.602 67.126-3.269 1.455c-1.176.43-2.35.864-3.527 1.29-3.024 1.093-6.101 1.977-9.298 2.392-1.16.15-1.5-.05-1.976-1.12-4.996-11.221-9.997-22.443-14.986-33.668-.796-1.79-1.613-3.567-2.84-5.115-1.19-1.5-2.562-2.785-4.364-3.524-.721-.295-1.482.004-1.776.66s-.06 1.429.608 1.737c2.483 1.146 3.983 3.208 5.102 5.57 1.285 2.712 2.457 5.477 3.678 8.22l.244.548c-.251.112-.4.198-.562.248-3.09.944-6.257 1.366-9.481 1.378-1.027.003-1.474-.324-1.774-1.296-.916-2.963-1.893-5.91-2.727-8.895-.847-3.028-1.467-6.112-1.623-9.267-.103-2.07.102-4.06 1.364-5.841 1.944-2.744 4.304-5.082 6.828-7.272.858-.744 1.74-1.46 2.541-2.13.035.876-.1 1.784.143 2.576.345 1.12.851 2.231 1.494 3.213 1.807 2.762 4.227 4.972 6.732 7.085.782.66 1.343.631 2.166-.016.914-.718 1.835-1.427 2.82-2.191l.284.64c.962 2.158 1.92 4.318 2.89 6.473.306.683.977.978 1.621.744.714-.259 1.061-.873.901-1.613-.039-.18-.105-.354-.162-.538 1.652-.154 2.528-.782 2.846-2.025.297-1.16-.106-2.263-1.066-2.912-1.159-.784-2.151-.637-3.736.566l-1.251-2.811c.524-.185 1.004-.42 1.512-.518 1.562-.306 3.134-.56 4.7-.836.913-.16 1.306-.571 1.347-1.495.14-3.083.087-6.163-.577-9.19-.498-2.267-1.151-4.483-3.54-5.632.118-.053.188-.102.264-.115 3.48-.584 6.98-.954 10.517-.886 2.844.055 5.445.62 7.562 2.766 2.538 2.572 4.685 5.433 6.598 8.474 1.505 2.392 2.894 4.856 4.335 7.288.449.757.433 1.487-.199 2.094-1.513 1.45-3.03 2.906-4.63 4.26-.99.84-2.135 1.5-3.244 2.262-.132-.23-.203-.334-.254-.447-1.281-2.878-2.625-5.732-3.824-8.645-.958-2.332-1.426-4.76-.633-7.277.217-.691-.204-1.4-.88-1.624-.633-.209-1.383.107-1.63.758a8 8 0 0 0-.427 1.599c-.444 2.849.163 5.547 1.308 8.132 5.221 11.774 10.47 23.537 15.71 35.305.407.917.315 1.345-.447 2.013-2.426 2.129-5.155 3.808-7.98 5.34-1.138.617-2.29 1.211-3.434 1.816z"/><path d="M23.283 10.653c3.202-.635 6.017-1.865 8.658-3.842.096 1.247.189 2.315.257 3.386.175 2.796.336 5.593.509 8.388.019.317.021.631-.373.682-.213.026-.522.018-.65-.113-2.77-2.779-5.52-5.577-8.4-8.5z"/><path d="m35.387 18.331-.765-12.139c1.586.163 2.475 1.04 2.928 2.903.654 2.7.836 5.447.818 8.216-.004.402-.137.562-.526.616-.796.111-1.587.259-2.453.404z"/><path d="m20.808 11.988 8.809 8.91c-.742.587-1.427 1.151-2.144 1.672-.108.08-.418.027-.536-.078-2.253-1.981-4.361-4.095-5.904-6.702-.692-1.169-.746-2.053-.227-3.803z"/></g></svg>
